icons/bhi_info.svg

<svg xmlns="http://www.w3.org/2000/svg" viewBox="0 0 512 512" enable-background="new 0 0 512 512"><path fill="#010101" d="M255.9.1c-140.8 0-255.9 115.1-255.9 255.8s115.1 255.9 255.9 255.9 255.9-115.1 255.9-255.9-115.2-255.8-255.9-255.8zm25.6 383.8h-51.2v-153.6h51.2v153.6zm0-204.7h-51.2v-51.2h51.2v51.2z"/></svg>

<?xml version="1.0" encoding="utf-8"?>
<!-- Generator: Adobe Illustrator 19.2.0, SVG Export Plug-In . SVG Version: 6.00 Build 0)  -->
<svg version="1.1" id="Layer_1" xmlns="http://www.w3.org/2000/svg" xmlns:xlink="http://www.w3.org/1999/xlink" x="0px" y="0px"
	 viewBox="0 0 512 512" enable-background="new 0 0 512 512" xml:space="preserve">
<g id="info_3_">
	<path fill="#010101" d="M255.9,0.1C115.1,0.1,0,115.2,0,255.9s115.1,255.9,255.9,255.9s255.9-115.1,255.9-255.9
		S396.6,0.1,255.9,0.1z M281.5,383.9h-51.2V230.3h51.2V383.9z M281.5,179.2h-51.2V128h51.2V179.2z"/>
</g>
</svg>
